public/assets/english-flag.svg

<svg width="32" height="32" viewBox="0 0 32 32" fill="none" xmlns="http://www.w3.org/2000/svg">
<g filter="url(#filter0_dd_2513_8590)">
<path d="M11.9989 26.3193V20.7993L7.87891 23.8393C9.03891 24.9193 10.4389 25.7593 11.9989 26.3193Z" fill="#29337A" style="fill:#29337A;fill:color(display-p3 0.1608 0.2000 0.4784);fill-opacity:1;"/>
<path d="M20 26.3173C21.56 25.7573 22.96 24.9173 24.12 23.8373L20 20.7573V26.3173Z" fill="#29337A" style="fill:#29337A;fill:color(display-p3 0.1608 0.2000 0.4784);fill-opacity:1;"/>
<path d="M4.67969 18.9995C4.79969 19.3995 4.95969 19.7595 5.15969 20.1595L6.71969 18.9995H4.67969Z" fill="#29337A" style="fill:#29337A;fill:color(display-p3 0.1608 0.2000 0.4784);fill-opacity:1;"/>
<path d="M25.2793 18.9995L26.8393 20.1595C26.9993 19.7995 27.1593 19.3995 27.3193 18.9995H25.2793Z" fill="#29337A" style="fill:#29337A;fill:color(display-p3 0.1608 0.2000 0.4784);fill-opacity:1;"/>
<path d="M12.6002 17.3999H4.24023C4.36023 17.9599 4.52023 18.4799 4.68023 18.9999H6.72023L5.16023 20.1599C5.48023 20.8399 5.84023 21.4399 6.28023 22.0399L10.4002 18.9999H12.0002V19.7999L7.32023 23.2399L7.88023 23.7999L12.0002 20.7999V26.3199C12.5202 26.5199 13.0402 26.6399 13.6002 26.7599V17.3999H12.6002Z" fill="white" style="fill:white;fill-opacity:1;"/>
<path d="M27.7604 17.3999H18.4004V26.7599C18.9604 26.6399 19.4804 26.4799 20.0004 26.3199V20.7999L24.1204 23.7999C24.6804 23.2799 25.1604 22.7199 25.6404 22.1199L21.3604 18.9999H24.0804L26.5204 20.7999C26.6404 20.5999 26.7604 20.3599 26.8404 20.1599L25.2804 18.9999H27.3204C27.4804 18.4799 27.6404 17.9599 27.7604 17.3999Z" fill="white" style="fill:white;fill-opacity:1;"/>
<path d="M6.2793 22.0405C6.5993 22.4805 6.9193 22.8805 7.2793 23.2805L11.9993 19.8405V19.0405H10.3993L6.2793 22.0405Z" fill="#E51D35" style="fill:#E51D35;fill:color(display-p3 0.8980 0.1137 0.2078);fill-opacity:1;"/>
<path d="M21.4004 18.9995L25.6804 22.1195C25.8404 21.9195 25.9604 21.7195 26.1204 21.5195C26.1604 21.4795 26.1604 21.4395 26.2004 21.4395C26.3204 21.2395 26.4804 20.9995 26.6004 20.7995L24.0804 18.9995H21.4004Z" fill="#E51D35" style="fill:#E51D35;fill:color(display-p3 0.8980 0.1137 0.2078);fill-opacity:1;"/>
<path d="M20 3.68018V9.20018L24.12 6.16018C22.96 5.08018 21.56 4.24018 20 3.68018Z" fill="#29337A" style="fill:#29337A;fill:color(display-p3 0.1608 0.2000 0.4784);fill-opacity:1;"/>
<path d="M11.9989 3.68018C10.4389 4.24018 9.03891 5.08018 7.87891 6.16018L11.9989 9.24018V3.68018Z" fill="#29337A" style="fill:#29337A;fill:color(display-p3 0.1608 0.2000 0.4784);fill-opacity:1;"/>
<path d="M27.3193 11.0003C27.1993 10.6003 27.0393 10.2403 26.8393 9.84033L25.2793 11.0003H27.3193Z" fill="#29337A" style="fill:#29337A;fill:color(display-p3 0.1608 0.2000 0.4784);fill-opacity:1;"/>
<path d="M6.71969 11.0003L5.15969 9.84033C4.99969 10.2403 4.83969 10.6003 4.67969 11.0003H6.71969Z" fill="#29337A" style="fill:#29337A;fill:color(display-p3 0.1608 0.2000 0.4784);fill-opacity:1;"/>
<path d="M19.4004 12.5978H27.7204C27.6004 12.0378 27.4404 11.5178 27.2804 10.9978H25.2404L26.8004 9.83779C26.4804 9.15779 26.1204 8.55779 25.6804 7.95779L21.6004 10.9978H20.0004V10.1978L24.6804 6.75779L24.1204 6.19779L20.0004 9.19779V3.67779C19.4804 3.47779 18.9604 3.35779 18.4004 3.23779V12.5978H19.4004Z" fill="white" style="fill:white;fill-opacity:1;"/>
<path d="M4.24023 12.5978H13.6002V3.23779C13.0402 3.35779 12.5202 3.51779 12.0002 3.67779V9.19779L7.88023 6.19779C7.32023 6.71779 6.84023 7.27779 6.36023 7.87779L10.6402 10.9978H7.92023L5.48023 9.19779C5.36023 9.39779 5.24023 9.63779 5.16023 9.83779L6.72023 10.9978H4.68023C4.52023 11.5178 4.36023 12.0378 4.24023 12.5978Z" fill="white" style="fill:white;fill-opacity:1;"/>
<path d="M25.72 7.95826C25.4 7.51826 25.08 7.11826 24.72 6.71826L20 10.1583V10.9583H21.6L25.72 7.95826Z" fill="#E51D35" style="fill:#E51D35;fill:color(display-p3 0.8980 0.1137 0.2078);fill-opacity:1;"/>
<path d="M10.5995 10.9984L6.35945 7.87842C6.19945 8.07842 6.07945 8.27842 5.91945 8.47842C5.87945 8.51842 5.87945 8.55842 5.83945 8.55842C5.71945 8.75842 5.55945 8.99842 5.43945 9.19842L7.87945 10.9984H10.5995Z" fill="#E51D35" style="fill:#E51D35;fill:color(display-p3 0.8980 0.1137 0.2078);fill-opacity:1;"/>
<path d="M27.76 12.6H18.4V3.24C17.64 3.08 16.84 3 16 3C15.16 3 14.36 3.08 13.6 3.24V12.6H4.24C4.08 13.36 4 14.16 4 15C4 15.84 4.08 16.64 4.24 17.4H13.6V26.76C14.36 26.92 15.16 27 16 27C16.84 27 17.64 26.92 18.4 26.76V17.4H27.76C27.92 16.64 28 15.84 28 15C28 14.16 27.92 13.36 27.76 12.6Z" fill="#E51D35" style="fill:#E51D35;fill:color(display-p3 0.8980 0.1137 0.2078);fill-opacity:1;"/>
</g>
<defs>
<filter id="filter0_dd_2513_8590" x="0" y="0" width="32" height="32" filterUnits="userSpaceOnUse" color-interpolation-filters="sRGB">
<feFlood flood-opacity="0" result="BackgroundImageFix"/>
<feColorMatrix in="SourceAlpha" type="matrix" values="0 0 0 0 0 0 0 0 0 0 0 0 0 0 0 0 0 0 127 0" result="hardAlpha"/>
<feMorphology radius="1" operator="dilate" in="SourceAlpha" result="effect1_dropShadow_2513_8590"/>
<feOffset dy="1"/>
<feGaussianBlur stdDeviation="1.5"/>
<feColorMatrix type="matrix" values="0 0 0 0 0 0 0 0 0 0 0 0 0 0 0 0 0 0 0.15 0"/>
<feBlend mode="normal" in2="BackgroundImageFix" result="effect1_dropShadow_2513_8590"/>
<feColorMatrix in="SourceAlpha" type="matrix" values="0 0 0 0 0 0 0 0 0 0 0 0 0 0 0 0 0 0 127 0" result="hardAlpha"/>
<feOffset dy="1"/>
<feGaussianBlur stdDeviation="1"/>
<feColorMatrix type="matrix" values="0 0 0 0 0 0 0 0 0 0 0 0 0 0 0 0 0 0 0.3 0"/>
<feBlend mode="normal" in2="effect1_dropShadow_2513_8590" result="effect2_dropShadow_2513_8590"/>
<feBlend mode="normal" in="SourceGraphic" in2="effect2_dropShadow_2513_8590" result="shape"/>
</filter>
</defs>
</svg>

<svg width="32" height="32" viewBox="0 0 32 32" fill="none" xmlns="http://www.w3.org/2000/svg"><g filter="url(#a)"><path d="M11.999 26.32V20.8l-4.12 3.04c1.16 1.08 2.56 1.92 4.12 2.48M20 26.317c1.56-.56 2.96-1.4 4.12-2.48L20 20.757zM4.68 19c.12.4.28.76.48 1.16L6.72 19zm20.6 0 1.56 1.16c.16-.36.32-.76.48-1.16z" fill="#29337A" style="fill:#29337a;fill:color(display-p3 .1608 .2 .4784);fill-opacity:1"/><path d="M12.6 17.4H4.24c.12.56.28 1.08.44 1.6h2.04l-1.56 1.16c.32.68.68 1.28 1.12 1.88L10.4 19H12v.8l-4.68 3.44.56.56 4.12-3v5.52c.52.2 1.04.32 1.6.44V17.4zm15.16 0H18.4v9.36c.56-.12 1.08-.28 1.6-.44V20.8l4.12 3c.56-.52 1.04-1.08 1.52-1.68L21.36 19h2.72l2.44 1.8c.12-.2.24-.44.32-.64L25.28 19h2.04c.16-.52.32-1.04.44-1.6" fill="#fff" style="fill:#fff;fill-opacity:1"/><path d="M6.28 22.04c.32.44.64.84 1 1.24L12 19.84v-.8h-1.6zM21.4 19l4.28 3.12c.16-.2.28-.4.44-.6.04-.04.04-.08.08-.08.12-.2.28-.44.4-.64L24.08 19z" fill="#E51D35" style="fill:#e51d35;fill:color(display-p3 .898 .1137 .2078);fill-opacity:1"/><path d="M20 3.68V9.2l4.12-3.04A11.95 11.95 0 0 0 20 3.68m-8.001 0c-1.56.56-2.96 1.4-4.12 2.48l4.12 3.08zM27.32 11c-.12-.4-.28-.76-.48-1.16L25.28 11zm-20.6 0L5.16 9.84c-.16.4-.32.76-.48 1.16z" fill="#29337A" style="fill:#29337a;fill:color(display-p3 .1608 .2 .4784);fill-opacity:1"/><path d="M19.4 12.598h8.32c-.12-.56-.28-1.08-.44-1.6h-2.04l1.56-1.16c-.32-.68-.68-1.28-1.12-1.88l-4.08 3.04H20v-.8l4.68-3.44-.56-.56-4.12 3v-5.52c-.52-.2-1.04-.32-1.6-.44v9.36zm-15.16 0h9.36v-9.36c-.56.12-1.08.28-1.6.44v5.52l-4.12-3c-.56.52-1.04 1.08-1.52 1.68l4.28 3.12H7.92l-2.44-1.8c-.12.2-.24.44-.32.64l1.56 1.16H4.68c-.16.52-.32 1.04-.44 1.6" fill="#fff" style="fill:#fff;fill-opacity:1"/><path d="M25.72 7.958c-.32-.44-.64-.84-1-1.24L20 10.158v.8h1.6zm-15.12 3.04-4.24-3.12c-.16.2-.28.4-.44.6-.04.04-.04.08-.08.08-.12.2-.28.44-.4.64l2.44 1.8z" fill="#E51D35" style="fill:#e51d35;fill:color(display-p3 .898 .1137 .2078);fill-opacity:1"/><path d="M27.76 12.6H18.4V3.24Q17.26 3 16 3t-2.4.24v9.36H4.24Q4 13.74 4 15t.24 2.4h9.36v9.36q1.14.24 2.4.24t2.4-.24V17.4h9.36Q28 16.26 28 15t-.24-2.4" fill="#E51D35" style="fill:#e51d35;fill:color(display-p3 .898 .1137 .2078);fill-opacity:1"/></g><defs><filter id="a" x="0" y="0" width="32" height="32" filterUnits="userSpaceOnUse" color-interpolation-filters="sRGB"><feFlood flood-opacity="0" result="BackgroundImageFix"/><feColorMatrix in="SourceAlpha" values="0 0 0 0 0 0 0 0 0 0 0 0 0 0 0 0 0 0 127 0" result="hardAlpha"/><feMorphology radius="1" operator="dilate" in="SourceAlpha" result="effect1_dropShadow_2513_8590"/><feOffset dy="1"/><feGaussianBlur stdDeviation="1.5"/><feColorMatrix values="0 0 0 0 0 0 0 0 0 0 0 0 0 0 0 0 0 0 0.15 0"/><feBlend in2="BackgroundImageFix" result="effect1_dropShadow_2513_8590"/><feColorMatrix in="SourceAlpha" values="0 0 0 0 0 0 0 0 0 0 0 0 0 0 0 0 0 0 127 0" result="hardAlpha"/><feOffset dy="1"/><feGaussianBlur stdDeviation="1"/><feColorMatrix values="0 0 0 0 0 0 0 0 0 0 0 0 0 0 0 0 0 0 0.3 0"/><feBlend in2="effect1_dropShadow_2513_8590" result="effect2_dropShadow_2513_8590"/><feBlend in="SourceGraphic" in2="effect2_dropShadow_2513_8590" result="shape"/></filter></defs></svg>
